!!!OTL: Shajicanange
!!!ARE: Asia, China,ÿGuangdong Guangzhou
!! II, 374
!!!SCT: C1898
!!!YEM: Copyright 1995, estate of Helmut Schaffrath.
**kern
*ICvox
*Ivox
*M2/4
*k[f#]
*G:
{4.g
8a
=1
4b
4a
=2
8g
8f#
8e
8d
=3
2g}
=4
{4.g
8a
=5
8b
8a
8g
8a
=6
2b}
=7
{4.dd
8ee
=8
8dd
8ee
4b
=9
2a}
=10
{4.b
8a
=11
8g
8e
8g
8a
=12
2b}
=13
{8a
8b
8a
8g
=14
4e
4g
=15
4B
4d
=16
2e}
=17
{8d
8B
8d
8e
=18
2g}
=19
{8a
8dd
8b
8a
=20
2g}
=21
{8a
8b
8a
8g
=22
4B
4d
=23
8e
8d
8e
8g
=24
2d}
==
!!!AGN: Xiaodiao, Shangyunti
!!!AMT: simple duple
!!!AIN: vox
!!!EED: Helmut Schaffrath
!!!EEV: 1.0
*-
